dist/img/svg/bg/scheme-work/graphic/line-5.svg

<svg width="589" height="141" viewBox="0 0 589 141" fill="none" xmlns="http://www.w3.org/2000/svg">
<path d="M1 140C9.17365 134.826 29.0162 138.893 41.8296 135.942C52.013 132.841 57.5701 131.47 65.5387 121.795C71.1001 112.368 76.2977 103.75 74.6103 92.8724C73.1979 83.7666 46.0564 75.0578 39.2053 86.0622C35.6767 87.3259 36.365 95.5505 37.3955 97.8757C39.8367 103.384 42.8886 107.453 49.25 111.002C63.6062 119.011 94.2448 124.061 113.296 111.002C231.786 29.7802 329.449 59.584 364.755 63.7477C388.465 66.5437 407.883 91.79 404.823 104.749C401.118 120.436 381.547 127.759 367.058 127.759C349.142 127.759 330.501 116.625 330.501 97.8028C330.501 76.3741 357.847 66.8932 383.892 63.7477C404.382 61.273 416.647 61.6164 436.921 65.0603C491.406 74.3158 563.5 63.7477 588 1" stroke="#5CCD6A" stroke-linecap="round" stroke-dasharray="8 8"/>
</svg>

<svg width="589" height="141" fill="none" xmlns="http://www.w3.org/2000/svg"><path d="M1 140c8.174-5.174 28.016-1.107 40.83-4.058 10.183-3.101 15.74-4.472 23.709-14.147 5.561-9.427 10.759-18.045 9.071-28.923-1.412-9.105-28.554-17.814-35.405-6.81-3.528 1.264-2.84 9.489-1.81 11.814 2.442 5.508 5.494 9.577 11.855 13.126 14.356 8.009 44.995 13.059 64.046 0 118.49-81.222 216.153-51.418 251.459-47.254 23.71 2.796 43.128 28.042 40.068 41.001-3.705 15.687-23.276 23.01-37.765 23.01-17.916 0-36.557-11.134-36.557-29.956 0-21.429 27.346-30.91 53.391-34.055 20.49-2.475 32.755-2.132 53.029 1.312C491.406 74.316 563.5 63.748 588 1" stroke="#5CCD6A" stroke-linecap="round" stroke-dasharray="8 8"/></svg>
